app/dist/common/images/freeport-mcmoran.svg

<svg height="18" width="18" xmlns="http://www.w3.org/2000/svg" xmlns:xlink="http://www.w3.org/1999/xlink"><linearGradient id="a" gradientUnits="userSpaceOnUse" x1="3.349" x2="21.904" y1="3.122" y2="24.434"><stop offset="0" stop-color="#1a1e21"/><stop offset="1" stop-color="#06060a"/></linearGradient><path d="m0 0h18v18h-18z" fill="url(#a)"/><g fill="#1cadff"><path d="m2 7v4h3v-1h3v-1h-3v-1h3v-1zm8 3h-2v1h2z"/><path d="m8 9v-1h3.573l.576 1.452.645-1.452h3.206v3h-1.997v-2.095l-.867 2.095h-1.992l-.844-2z"/></g></svg>

<!-- by TradingView --><svg width="18" height="18" xmlns="http://www.w3.org/2000/svg"><path fill="url(#paint0_linear)" d="M0 0h18v18H0z"/><path d="M2 7v4h3v-1h3V9H5V8h3V7H2zM10 10H8v1h2v-1z" fill="#1CADFF"/><path d="M8 9V8h3.573l.576 1.452L12.794 8H16v3h-1.997V8.905L13.136 11h-1.992L10.3 9H8z" fill="#1CADFF"/><defs><linearGradient id="paint0_linear" x1="3.349" y1="3.122" x2="21.904" y2="24.434" gradientUnits="userSpaceOnUse"><stop stop-color="#1A1E21"/><stop offset="1" stop-color="#06060A"/></linearGradient></defs></svg>
